src/assets/images/work4.svg

<svg width="63" height="63" viewBox="0 0 63 63" fill="none" xmlns="http://www.w3.org/2000/svg">
<path d="M61.091 33.8076C61.091 54.2802 47.6476 61.1044 31.0649 61.1044C14.4822 61.1044 1.03882 54.2802 1.03882 33.8076C1.03882 14.7006 14.4822 1.05225 31.0649 1.05225C47.6476 1.05225 61.091 14.7006 61.091 33.8076Z" fill="#F5F5F5"/>
<path d="M31.0648 1.05225C30.544 1.05225 30.0263 1.06571 29.5117 1.09263C45.3727 1.92093 57.9847 15.3012 57.9847 33.8107C57.9847 53.6372 45.3727 60.6623 29.5117 61.0837C30.0263 61.0971 30.544 61.1044 31.0648 61.1044C47.6475 61.1044 61.0909 54.2802 61.0909 33.8076C61.0909 14.7006 47.6475 1.05225 31.0648 1.05225Z" fill="#CFD8DC"/>
<path d="M42.4539 22.7954H19.6755C11.67 22.7954 5.18018 29.2852 5.18018 37.2908C5.18018 45.2963 11.67 51.7861 19.6755 51.7861H42.4539C50.4595 51.7861 56.9493 45.2963 56.9493 37.2908C56.9493 29.2852 50.4595 22.7954 42.4539 22.7954Z" fill="#607D8B"/>
<path d="M42.454 22.7954H39.3479C47.3535 22.7954 53.8432 29.2852 53.8432 37.2908C53.8432 45.2963 47.3535 51.7861 39.3479 51.7861H42.454C50.4596 51.7861 56.9494 45.2963 56.9494 37.2908C56.9494 29.2852 50.4596 22.7954 42.454 22.7954Z" fill="#37474F"/>
<path d="M7.25094 5.19377C8.39459 5.19377 9.3217 4.26666 9.3217 3.12301C9.3217 1.97936 8.39459 1.05225 7.25094 1.05225C6.10729 1.05225 5.18018 1.97936 5.18018 3.12301C5.18018 4.26666 6.10729 5.19377 7.25094 5.19377Z" fill="#02A9F4"/>
<path d="M54.8789 5.19377C56.0225 5.19377 56.9496 4.26666 56.9496 3.12301C56.9496 1.97936 56.0225 1.05225 54.8789 1.05225C53.7352 1.05225 52.8081 1.97936 52.8081 3.12301C52.8081 4.26666 53.7352 5.19377 54.8789 5.19377Z" fill="#02A9F4"/>
<path d="M16.5695 38.326C18.8568 38.326 20.711 36.4718 20.711 34.1845C20.711 31.8972 18.8568 30.043 16.5695 30.043C14.2822 30.043 12.428 31.8972 12.428 34.1845C12.428 36.4718 14.2822 38.326 16.5695 38.326Z" fill="#00BCD4"/>
<path d="M45.5602 38.326C47.8475 38.326 49.7018 36.4718 49.7018 34.1845C49.7018 31.8972 47.8475 30.043 45.5602 30.043C43.2729 30.043 41.4187 31.8972 41.4187 34.1845C41.4187 36.4718 43.2729 38.326 45.5602 38.326Z" fill="#00BCD4"/>
<path d="M26.9236 40.3969H35.2066C35.4812 40.3969 35.7446 40.5059 35.9387 40.7001C36.1329 40.8943 36.242 41.1576 36.242 41.4322C36.242 42.8052 35.6966 44.122 34.7257 45.0929C33.7549 46.0637 32.4381 46.6091 31.0651 46.6091C29.6921 46.6091 28.3753 46.0637 27.4045 45.0929C26.4336 44.122 25.8882 42.8052 25.8882 41.4322C25.8882 41.1576 25.9973 40.8943 26.1914 40.7001C26.3856 40.5059 26.649 40.3969 26.9236 40.3969Z" fill="#00BCD4"/>
<path d="M19.6757 21.7599C11.0986 21.7599 4.14502 28.7135 4.14502 37.2906C4.14502 45.8677 11.0986 52.8213 19.6757 52.8213H42.4541C51.0312 52.8213 57.9849 45.8677 57.9849 37.2906C57.9849 28.7135 51.0312 21.7599 42.4541 21.7599H19.6757ZM55.9141 37.2906C55.9058 44.7205 49.884 50.7423 42.4541 50.7506H19.6757C12.2417 50.7506 6.21578 44.7246 6.21578 37.2906C6.21578 29.8566 12.2417 23.8306 19.6757 23.8306H42.4541C49.884 23.8389 55.9058 29.8607 55.9141 37.2906ZM27.9588 19.6891H34.1711C34.4457 19.6891 34.709 19.58 34.9032 19.3859C35.0974 19.1917 35.2065 18.9283 35.2065 18.6537C35.2065 18.3791 35.0974 18.1158 34.9032 17.9216C34.709 17.7274 34.4457 17.6184 34.1711 17.6184H27.9588C27.6842 17.6184 27.4208 17.7274 27.2267 17.9216C27.0325 18.1158 26.9234 18.3791 26.9234 18.6537C26.9234 18.9283 27.0325 19.1917 27.2267 19.3859C27.4208 19.58 27.6842 19.6891 27.9588 19.6891ZM30.0296 16.583H32.1003C32.3749 16.583 32.6383 16.4739 32.8325 16.2797C33.0266 16.0855 33.1357 15.8222 33.1357 15.5476C33.1357 15.273 33.0266 15.0096 32.8325 14.8155C32.6383 14.6213 32.3749 14.5122 32.1003 14.5122H30.0296C29.755 14.5122 29.4916 14.6213 29.2974 14.8155C29.1033 15.0096 28.9942 15.273 28.9942 15.5476C28.9942 15.8222 29.1033 16.0855 29.2974 16.2797C29.4916 16.4739 29.755 16.583 30.0296 16.583Z" fill="black"/>
<path d="M55.914 6.03879C56.6048 5.79455 57.187 5.31395 57.5578 4.68194C57.9285 4.04993 58.0639 3.3072 57.94 2.58503C57.8161 1.86286 57.4409 1.20774 56.8806 0.735454C56.3204 0.263173 55.6113 0.00414147 54.8786 0.00414147C54.1458 0.00414147 53.4367 0.263173 52.8765 0.735454C52.3163 1.20774 51.9411 1.86286 51.8172 2.58503C51.6933 3.3072 51.8286 4.04993 52.1994 4.68194C52.5701 5.31395 53.1524 5.79455 53.8432 6.03879V10.3874C51.0287 7.10667 47.5326 4.47922 43.5986 2.68816C39.6645 0.897103 35.3872 -0.01446 31.0648 0.0170083C26.7427 -0.0149711 22.4656 0.895947 18.5316 2.68628C14.5976 4.47661 11.1013 7.10329 8.2864 10.3832V6.03465C8.97722 5.7904 9.55946 5.30981 9.9302 4.6778C10.3009 4.04579 10.4363 3.30306 10.3124 2.58089C10.1885 1.85872 9.8133 1.20359 9.25309 0.731313C8.69288 0.259032 7.98374 0 7.25102 0C6.51829 0 5.80915 0.259032 5.24894 0.731313C4.68873 1.20359 4.31351 1.85872 4.1896 2.58089C4.0657 3.30306 4.20108 4.04579 4.57183 4.6778C4.94258 5.30981 5.52481 5.7904 6.21563 6.03465V13.0421C2.07095 19.1663 -0.0971809 26.4136 0.0033439 33.8077C0.0033439 52.3431 10.7444 62.1399 31.0648 62.1399C51.3852 62.1399 62.1262 52.3431 62.1262 33.8077C62.2259 26.415 60.0578 19.1692 55.914 13.0462V6.03879ZM54.8786 2.08777C55.1532 2.08777 55.4165 2.19686 55.6107 2.39103C55.8049 2.5852 55.914 2.84855 55.914 3.12315C55.914 3.39775 55.8049 3.66111 55.6107 3.85528C55.4165 4.04945 55.1532 4.15853 54.8786 4.15853C54.604 4.15853 54.3406 4.04945 54.1464 3.85528C53.9523 3.66111 53.8432 3.39775 53.8432 3.12315C53.8432 2.84855 53.9523 2.5852 54.1464 2.39103C54.3406 2.19686 54.604 2.08777 54.8786 2.08777ZM7.25102 2.08777C7.52562 2.08777 7.78897 2.19686 7.98314 2.39103C8.17731 2.5852 8.2864 2.84855 8.2864 3.12315C8.2864 3.39775 8.17731 3.66111 7.98314 3.85528C7.78897 4.04945 7.52562 4.15853 7.25102 4.15853C6.97642 4.15853 6.71306 4.04945 6.51889 3.85528C6.32472 3.66111 6.21563 3.39775 6.21563 3.12315C6.21563 2.84855 6.32472 2.5852 6.51889 2.39103C6.71306 2.19686 6.97642 2.08777 7.25102 2.08777ZM31.0648 60.0691C17.8399 60.0691 2.07411 55.5135 2.07411 33.8077C2.07411 15.7248 14.538 2.08777 31.0648 2.08777C47.5916 2.08777 60.0555 15.7248 60.0555 33.8077C60.0555 55.5135 44.2897 60.0691 31.0648 60.0691Z" fill="black"/>
<path d="M16.5695 29.0076C15.1965 29.0076 13.8797 29.553 12.9089 30.5238C11.938 31.4947 11.3926 32.8115 11.3926 34.1845C11.3926 35.5575 11.938 36.8742 12.9089 37.8451C13.8797 38.816 15.1965 39.3614 16.5695 39.3614C17.9425 39.3614 19.2593 38.816 20.2301 37.8451C21.201 36.8742 21.7464 35.5575 21.7464 34.1845C21.7464 32.8115 21.201 31.4947 20.2301 30.5238C19.2593 29.553 17.9425 29.0076 16.5695 29.0076ZM16.5695 37.2906C15.7457 37.2906 14.9556 36.9634 14.3731 36.3809C13.7906 35.7983 13.4633 35.0083 13.4633 34.1845C13.4633 33.3607 13.7906 32.5706 14.3731 31.9881C14.9556 31.4056 15.7457 31.0783 16.5695 31.0783C17.3933 31.0783 18.1833 31.4056 18.7659 31.9881C19.3484 32.5706 19.6756 33.3607 19.6756 34.1845C19.6756 35.0083 19.3484 35.7983 18.7659 36.3809C18.1833 36.9634 17.3933 37.2906 16.5695 37.2906ZM40.3833 34.1845C40.3833 35.5575 40.9287 36.8742 41.8995 37.8451C42.8704 38.816 44.1872 39.3614 45.5602 39.3614C46.9332 39.3614 48.2499 38.816 49.2208 37.8451C50.1917 36.8742 50.7371 35.5575 50.7371 34.1845C50.7371 32.8115 50.1917 31.4947 49.2208 30.5238C48.2499 29.553 46.9332 29.0076 45.5602 29.0076C44.1872 29.0076 42.8704 29.553 41.8995 30.5238C40.9287 31.4947 40.3833 32.8115 40.3833 34.1845ZM45.5602 31.0783C46.384 31.0783 47.174 31.4056 47.7565 31.9881C48.3391 32.5706 48.6663 33.3607 48.6663 34.1845C48.6663 35.0083 48.3391 35.7983 47.7565 36.3809C47.174 36.9634 46.384 37.2906 45.5602 37.2906C44.7364 37.2906 43.9463 36.9634 43.3638 36.3809C42.7813 35.7983 42.454 35.0083 42.454 34.1845C42.454 33.3607 42.7813 32.5706 43.3638 31.9881C43.9463 31.4056 44.7364 31.0783 45.5602 31.0783ZM35.2064 39.3614H26.9233C26.3741 39.3614 25.8474 39.5796 25.4591 39.9679C25.0707 40.3562 24.8525 40.8829 24.8525 41.4321C24.8525 43.0798 25.507 44.6599 26.6721 45.8249C27.8371 46.9899 29.4172 47.6444 31.0648 47.6444C32.7124 47.6444 34.2926 46.9899 35.4576 45.8249C36.6226 44.6599 37.2771 43.0798 37.2771 41.4321C37.2771 40.8829 37.059 40.3562 36.6706 39.9679C36.2823 39.5796 35.7556 39.3614 35.2064 39.3614ZM31.0648 45.5737C29.9664 45.5737 28.913 45.1373 28.1363 44.3606C27.3596 43.584 26.9233 42.5306 26.9233 41.4321H35.2064C35.2064 42.5306 34.77 43.584 33.9933 44.3606C33.2166 45.1373 32.1632 45.5737 31.0648 45.5737Z" fill="black"/>
</svg>

<svg width="63" height="63" fill="none" xmlns="http://www.w3.org/2000/svg"><path d="M61.091 33.808c0 20.472-13.443 27.296-30.026 27.296S1.039 54.28 1.039 33.808c0-19.107 13.443-32.756 30.026-32.756S61.09 14.701 61.09 33.808z" fill="#F5F5F5"/><path d="M31.065 1.052c-.521 0-1.039.014-1.553.04 15.86.829 28.473 14.21 28.473 32.719 0 19.826-12.612 26.851-28.473 27.273.514.013 1.032.02 1.553.02 16.582 0 30.026-6.824 30.026-27.296 0-19.107-13.444-32.756-30.026-32.756z" fill="#CFD8DC"/><path d="M42.454 22.795H19.675c-8.005 0-14.495 6.49-14.495 14.496 0 8.005 6.49 14.495 14.495 14.495h22.779c8.005 0 14.495-6.49 14.495-14.495 0-8.006-6.49-14.496-14.495-14.496z" fill="#607D8B"/><path d="M42.454 22.795h-3.106c8.005 0 14.495 6.49 14.495 14.496 0 8.005-6.49 14.495-14.495 14.495h3.106c8.006 0 14.495-6.49 14.495-14.495 0-8.006-6.49-14.496-14.495-14.496z" fill="#37474F"/><path d="M7.25 5.194a2.07 2.07 0 1 0 0-4.142 2.07 2.07 0 0 0 0 4.142zM54.879 5.194a2.07 2.07 0 1 0 0-4.142 2.07 2.07 0 0 0 0 4.142z" fill="#02A9F4"/><path d="M16.57 38.326a4.141 4.141 0 1 0 0-8.283 4.141 4.141 0 0 0 0 8.283zM45.56 38.326a4.142 4.142 0 1 0 0-8.283 4.142 4.142 0 0 0 0 8.283zM26.924 40.397h8.283a1.035 1.035 0 0 1 1.035 1.035 5.177 5.177 0 1 1-10.354 0 1.036 1.036 0 0 1 1.036-1.035z" fill="#00BCD4"/><path d="M19.676 21.76c-8.577 0-15.531 6.953-15.531 15.53 0 8.578 6.954 15.531 15.53 15.531h22.78c8.576 0 15.53-6.953 15.53-15.53 0-8.577-6.954-15.531-15.53-15.531h-22.78zm36.238 15.53c-.008 7.43-6.03 13.452-13.46 13.46H19.676c-7.434 0-13.46-6.025-13.46-13.46 0-7.433 6.026-13.46 13.46-13.46h22.778c7.43.009 13.452 6.03 13.46 13.46zM27.96 19.69h6.212a1.036 1.036 0 0 0 0-2.072H27.96a1.035 1.035 0 1 0 0 2.071zm2.07-3.107H32.1a1.036 1.036 0 0 0 0-2.07h-2.07a1.036 1.036 0 0 0 0 2.07z" fill="#000"/><path d="M55.914 6.039a3.106 3.106 0 1 0-2.07 0v4.348A29.727 29.727 0 0 0 31.063.017 29.727 29.727 0 0 0 8.287 10.383V6.035a3.106 3.106 0 1 0-2.07 0v7.007A36.172 36.172 0 0 0 .003 33.808c0 18.535 10.741 28.332 31.062 28.332 20.32 0 31.061-9.797 31.061-28.332a36.173 36.173 0 0 0-6.212-20.762V6.04zm-1.035-3.951a1.035 1.035 0 1 1 0 2.07 1.035 1.035 0 0 1 0-2.07zm-47.628 0a1.035 1.035 0 1 1 0 2.07 1.035 1.035 0 0 1 0-2.07zm23.814 57.981c-13.225 0-28.99-4.556-28.99-26.261 0-18.083 12.463-31.72 28.99-31.72s28.99 13.637 28.99 31.72c0 21.706-15.765 26.261-28.99 26.261z" fill="#000"/><path d="M16.57 29.008a5.177 5.177 0 1 0 0 10.353 5.177 5.177 0 0 0 0-10.353zm0 8.283a3.106 3.106 0 1 1 0-6.213 3.106 3.106 0 0 1 0 6.213zm23.813-3.106a5.177 5.177 0 1 0 10.354 0 5.177 5.177 0 0 0-10.354 0zm5.177-3.107a3.106 3.106 0 1 1 0 6.212 3.106 3.106 0 0 1 0-6.212zm-10.354 8.283h-8.283a2.07 2.07 0 0 0-2.07 2.071 6.212 6.212 0 1 0 12.424 0 2.07 2.07 0 0 0-2.07-2.07zm-4.141 6.213a4.142 4.142 0 0 1-4.142-4.142h8.283a4.141 4.141 0 0 1-4.141 4.142z" fill="#000"/></svg>
